; generated by PrusaSlicer 2.3.1+x64 on 2021-08-15 at 18:53:21 UTC

; 

; external perimeters extrusion width = 0.45mm
; perimeters extrusion width = 0.45mm
; infill extrusion width = 0.45mm
; solid infill extrusion width = 0.45mm
; top infill extrusion width = 0.40mm
; support material extrusion width = 0.35mm
; first layer extrusion width = 0.42mm

M73 P0 R75
M73 Q0 S75
M201 X1000 Y1000 Z200 E5000 ; sets maximum accelerations, mm/sec^2
M203 X200 Y200 Z12 E120 ; sets maximum feedrates, mm/sec
M204 P1250 R1250 T1250 ; sets acceleration (P, T) and retract acceleration (R), mm/sec^2
M205 X8.00 Y8.00 Z0.40 E4.50 ; sets the jerk limits, mm/sec
M205 S0 T0 ; sets the minimum extruding and travel feed rate, mm/sec
M107
;TYPE:Custom
M862.3 P "MK3S" ; printer model check
M862.1 P0.4 ; nozzle diameter check
M115 U3.9.3 ; tell printer latest fw version
G90 ; use absolute coordinates
M83 ; extruder relative mode
M104 S230 ; set extruder temp
M140 S85 ; set bed temp
M190 S85 ; wait for bed temp
M109 S230 ; wait for extruder temp
G28 W ; home all without mesh bed level
G80 ; mesh bed leveling
G1 Y-3.0 F1000.0 ; go outside print area
G92 E0.0
G1 X60.0 E9.0 F1000.0 ; intro line
G1 X100.0 E12.5 F1000.0 ; intro line
G92 E0.0
M221 S95

; Don't change E values below. Excessive value can damage the printer.

M907 E538 ; set extruder motor current
G21 ; set units to millimeters
G90 ; use absolute coordinates
M83 ; use relative distances for extrusion
M900 K0.08 ; Filament gcode LA 1.5
M900 K45 ; Filament gcode LA 1.0
;LAYER_CHANGE
;Z:0.2
;HEIGHT:0.2
;BEFORE_LAYER_CHANGE
G92 E0.0
;0.2


M73 P0 R74
G1 E-1.40000 F2100.000
G1 Z0.200 F10800.000
;AFTER_LAYER_CHANGE
;0.2
; printing object Needle Bandolier.stl id:0 copy 0
G1 Z0.400
G1 X101.621 Y94.907
G1 Z0.200
G1 E1.40000 F2100.000
M204 S1000
;TYPE:Support material
;WIDTH:0.42
G1 F1200.000
G1 X101.621 Y117.242 E0.70030
G1 X102.375 Y117.242 E0.02365
G1 X102.375 Y95.076 E0.69498
G1 X103.129 Y95.076 E0.02365
G1 X103.129 Y117.242 E0.69498
G1 X103.884 Y117.242 E0.02365
G1 X103.884 Y95.076 E0.69498
G1 X104.638 Y95.076 E0.02365
G1 X104.638 Y100.017 E0.15491
G1 X105.392 Y100.017 E0.02365
G1 X105.392 Y95.076 E0.15491
G1 X106.146 Y95.076 E0.02365
G1 X106.146 Y100.017 E0.15491
G1 X106.900 Y100.017 E0.02365
G1 X106.900 Y95.076 E0.15491
G1 X107.654 Y95.076 E0.02365
G1 X107.654 Y100.017 E0.15491
G1 X108.409 Y100.017 E0.02365
G1 X108.409 Y95.076 E0.15491
G1 X109.163 Y95.076 E0.02365
G1 X109.163 Y100.017 E0.15491
G1 X109.917 Y100.017 E0.02365
G1 X109.917 Y95.076 E0.15491
G1 X110.671 Y95.076 E0.02365
G1 X110.671 Y100.017 E0.15491
G1 X111.425 Y100.017 E0.02365
G1 X111.425 Y95.076 E0.15491
G1 X112.179 Y95.076 E0.02365
G1 X112.179 Y100.017 E0.15491
G1 X112.933 Y100.017 E0.02365
G1 X112.933 Y95.076 E0.15491
G1 X113.688 Y95.076 E0.02365
G1 X113.688 Y100.017 E0.15491
G1 X114.442 Y100.017 E0.02365
G1 X114.442 Y95.076 E0.15491
G1 X115.196 Y95.076 E0.02365
G1 X115.196 Y100.017 E0.15491
G1 X115.950 Y100.017 E0.02365
G1 X115.950 Y95.076 E0.15491
G1 X116.704 Y95.076 E0.02365
G1 X116.704 Y100.017 E0.15491
G1 X117.458 Y100.017 E0.02365
G1 X117.458 Y95.076 E0.15491
G1 X118.213 Y95.076 E0.02365
G1 X118.213 Y100.017 E0.15491
G1 X118.967 Y100.017 E0.02365
G1 X118.967 Y95.076 E0.15491
G1 X119.712 Y95.076 E0.02336
G1 X119.721 Y92.758 E0.07267
G1 X119.721 Y100.017 E0.22758
G1 X120.475 Y100.017 E0.02365
G1 X120.475 Y92.758 E0.22758
G1 X121.229 Y92.758 E0.02365
G1 X121.229 Y100.017 E0.22758
G1 X121.983 Y100.017 E0.02365
G1 X121.983 Y92.758 E0.22758
G1 X122.738 Y92.758 E0.02365
G1 X122.738 Y100.017 E0.22758
G1 X123.492 Y100.017 E0.02365
G1 X123.492 Y92.758 E0.22758
G1 X124.246 Y92.758 E0.02365
G1 X124.246 Y100.017 E0.22758
G1 X125.000 Y100.017 E0.02365
G1 X125.000 Y92.758 E0.22758
G1 X125.754 Y92.758 E0.02365
G1 X125.754 Y100.017 E0.22758
G1 X126.508 Y100.017 E0.02365
G1 X126.508 Y92.758 E0.22758
G1 X127.262 Y92.758 E0.02365
G1 X127.262 Y100.017 E0.22758
G1 X128.017 Y100.017 E0.02365
G1 X128.017 Y92.758 E0.22758
G1 X128.771 Y92.758 E0.02365
G1 X128.771 Y100.017 E0.22758
G1 X129.525 Y100.017 E0.02365
G1 X129.525 Y92.758 E0.22758
G1 X130.279 Y92.758 E0.02365
G1 X130.279 Y100.017 E0.22758
G1 X131.033 Y100.017 E0.02365
G1 X131.033 Y92.758 E0.22758
G1 X131.787 Y92.758 E0.02365
G1 X131.787 Y100.017 E0.22758
G1 X132.542 Y100.017 E0.02365
G1 X132.542 Y92.758 E0.22758
G1 X133.296 Y92.758 E0.02365
G1 X133.296 Y100.017 E0.22758
G1 X134.050 Y100.017 E0.02365
G1 X134.050 Y92.758 E0.22758
G1 X134.804 Y92.758 E0.02365
G1 X134.804 Y100.017 E0.22758
G1 X135.558 Y100.017 E0.02365
G1 X135.558 Y92.758 E0.22758
G1 X136.312 Y92.758 E0.02365
G1 X136.312 Y97.699 E0.15491
G1 X137.067 Y97.699 E0.02365
G1 X137.067 Y92.758 E0.15491
G1 X137.821 Y92.758 E0.02365
G1 X137.821 Y97.699 E0.15491
G1 X138.575 Y97.699 E0.02365
G1 X138.575 Y92.758 E0.15491
G1 X139.329 Y92.758 E0.02365
G1 X139.329 Y97.699 E0.15491
M73 Q0 S74
G1 X140.083 Y97.699 E0.02365
G1 X140.083 Y92.758 E0.15491
G1 X140.837 Y92.758 E0.02365
G1 X140.837 Y97.699 E0.15491
G1 X141.591 Y97.699 E0.02365
G1 X141.591 Y92.758 E0.15491
G1 X142.346 Y92.758 E0.02365
G1 X142.346 Y97.699 E0.15491
G1 X143.100 Y97.699 E0.02365
G1 X143.100 Y92.758 E0.15491
G1 X143.854 Y92.758 E0.02365
G1 X143.854 Y97.699 E0.15491
G1 X144.608 Y97.699 E0.02365
G1 X144.608 Y92.758 E0.15491
G1 X145.362 Y92.758 E0.02365
G1 X145.362 Y97.869 E0.16023
;WIPE_START
G1 F8640.000
G1 X145.362 Y92.758 E-1.17997
G1 X144.713 Y92.758 E-0.15003
;WIPE_END
G1 E-0.07000 F2100.000
G1 Z0.400 F10800.000
G1 X141.591 Y100.525
G1 Z0.200
G1 E1.40000 F2100.000
G1 F1200.000
G1 X141.591 Y100.699 E0.00546
G1 X142.243 Y100.699 E0.02044
G1 X142.314 Y102.318 E0.05080
G1 X142.346 Y102.316 E0.00101
G1 X142.346 Y100.662 E0.05187
G1 X143.100 Y100.629 E0.02367
G1 X143.100 Y102.284 E0.05187
G1 X143.854 Y102.251 E0.02367
G1 X143.854 Y100.596 E0.05187
G1 X144.608 Y100.564 E0.02367
G1 X144.608 Y100.659 E0.00298
G1 X144.417 Y100.667 E0.00601
G1 X144.434 Y101.065 E0.01249
G1 X144.608 Y101.058 E0.00547
G1 X144.608 Y102.388 E0.04171
;WIPE_START
G1 F8640.000
G1 X144.608 Y101.058 E-0.30719
G1 X144.434 Y101.065 E-0.04025
G1 X144.417 Y100.667 E-0.09199
G1 X144.608 Y100.659 E-0.04425
G1 X144.608 Y100.564 E-0.02195
G1 X143.854 Y100.596 E-0.17430
G1 X143.854 Y102.251 E-0.38199
G1 X143.100 Y102.284 E-0.17430
G1 X143.100 Y101.877 E-0.09378
;WIPE_END
G1 E-0.07000 F2100.000
G1 Z0.400 F10800.000
G1 X145.362 Y104.822
G1 Z0.200
G1 E1.40000 F2100.000
G1 F1200.000
G1 X145.362 Y102.860 E0.06152
G1 X145.712 Y102.825 F10800.000
;TYPE:Support material interface
;WIDTH:0.35
G1 F1200.000
G1 X145.712 Y98.047 E0.12202
G1 X145.195 Y98.047 E0.01322
G1 X145.195 Y101.260 E0.08206
G1 X145.184 Y101.015 E0.00627
G1 X145.149 Y100.983 E0.00119
G1 X145.182 Y100.982 E0.00084
G1 X145.162 Y100.522 E0.01175
G1 X144.819 Y100.207 E0.01190
G1 X144.677 Y100.213 E0.00363
G1 X144.677 Y98.047 E0.05532
G1 X144.159 Y98.047 E0.01322
G1 X144.159 Y100.235 E0.05589
G1 X143.641 Y100.258 E0.01323
G1 X143.641 Y98.047 E0.05646
G1 X143.123 Y98.047 E0.01322
G1 X143.123 Y100.280 E0.05704
G1 X142.606 Y100.303 E0.01323
G1 X142.606 Y98.047 E0.05761
G1 X142.088 Y98.047 E0.01322
G1 X142.088 Y100.325 E0.05819
G1 X141.570 Y100.348 E0.01323
G1 X141.570 Y98.047 E0.05876
G1 X141.052 Y98.047 E0.01322
G1 X141.052 Y100.370 E0.05933
G1 X140.534 Y100.393 E0.01323
G1 X140.534 Y98.047 E0.05991
G1 X140.016 Y98.047 E0.01322
G1 X140.016 Y100.415 E0.06048
G1 X139.499 Y100.438 E0.01323
G1 X139.499 Y98.047 E0.06106
G1 X138.981 Y98.047 E0.01322
G1 X138.981 Y100.460 E0.06163
G1 X138.463 Y100.483 E0.01323
G1 X138.463 Y98.047 E0.06220
G1 X137.945 Y98.047 E0.01322
G1 X137.945 Y100.505 E0.06278
G1 X137.427 Y100.528 E0.01323
G1 X137.427 Y98.047 E0.06335
G1 X136.910 Y98.047 E0.01322
G1 X136.910 Y100.550 E0.06393
G1 X136.392 Y100.573 E0.01323
G1 X136.392 Y100.364 E0.00532
G1 X135.874 Y100.364 E0.01322
G1 X135.874 Y100.595 E0.00589
G1 X135.356 Y100.618 E0.01323
G1 X135.356 Y100.364 E0.00647
G1 X134.838 Y100.364 E0.01322
G1 X134.838 Y100.640 E0.00704
G1 X134.321 Y100.663 E0.01323
G1 X134.321 Y100.364 E0.00761
G1 X133.803 Y100.364 E0.01322
G1 X133.803 Y100.685 E0.00819
G1 X133.285 Y100.708 E0.01323
G1 X133.285 Y100.364 E0.00876
G1 X132.767 Y100.364 E0.01322
G1 X132.767 Y100.730 E0.00934
G1 X132.249 Y100.752 E0.01323
G1 X132.249 Y100.364 E0.00991
G1 X131.732 Y100.364 E0.01322
G1 X131.732 Y100.775 E0.01048
G1 X131.214 Y100.797 E0.01323
G1 X131.214 Y100.364 E0.01106
G1 X130.696 Y100.364 E0.01322
G1 X130.696 Y100.820 E0.01163
G1 X130.178 Y100.842 E0.01323
G1 X130.178 Y100.364 E0.01221
G1 X129.660 Y100.364 E0.01322
G1 X129.660 Y100.865 E0.01278
G1 X129.142 Y100.887 E0.01323
G1 X129.142 Y100.364 E0.01335
G1 X128.625 Y100.364 E0.01322
G1 X128.625 Y100.910 E0.01393
G1 X128.107 Y100.932 E0.01323
G1 X128.107 Y100.364 E0.01450
G1 X127.589 Y100.364 E0.01322
G1 X127.589 Y100.955 E0.01508
G1 X127.071 Y100.977 E0.01323
G1 X127.071 Y100.364 E0.01565
G1 X126.553 Y100.364 E0.01322
G1 X126.553 Y101.000 E0.01623
G1 X126.036 Y101.022 E0.01323
G1 X126.036 Y100.364 E0.01680
G1 X125.518 Y100.364 E0.01322
G1 X125.518 Y101.045 E0.01737
G1 X125.000 Y101.067 E0.01323
G1 X125.000 Y100.364 E0.01795
G1 X124.482 Y100.364 E0.01322
G1 X124.482 Y101.090 E0.01852
G1 X123.964 Y101.112 E0.01323
G1 X123.964 Y100.364 E0.01910
G1 X123.447 Y100.364 E0.01322
G1 X123.447 Y101.135 E0.01967
G1 X122.929 Y101.157 E0.01323
G1 X122.929 Y100.364 E0.02024
G1 X122.411 Y100.364 E0.01322
G1 X122.411 Y101.180 E0.02082
G1 X121.893 Y101.202 E0.01323
G1 X121.893 Y100.364 E0.02139
G1 X121.375 Y100.364 E0.01322
G1 X121.375 Y101.225 E0.02197
G1 X120.858 Y101.247 E0.01323
G1 X120.858 Y100.364 E0.02254
G1 X120.340 Y100.364 E0.01322
G1 X120.340 Y101.270 E0.02311
G1 X119.822 Y101.292 E0.01323
G1 X119.822 Y100.364 E0.02369
G1 X119.304 Y100.364 E0.01322
G1 X119.304 Y101.315 E0.02426
G1 X118.786 Y101.337 E0.01323
G1 X118.786 Y100.364 E0.02484
G1 X118.268 Y100.364 E0.01322
G1 X118.268 Y101.360 E0.02541
G1 X117.751 Y101.382 E0.01323
G1 X117.751 Y100.364 E0.02598
G1 X117.233 Y100.364 E0.01322
G1 X117.233 Y101.404 E0.02656
G1 X116.715 Y101.427 E0.01323
G1 X116.715 Y100.364 E0.02713
G1 X116.197 Y100.364 E0.01322
G1 X116.197 Y101.449 E0.02771
G1 X115.679 Y101.472 E0.01323
G1 X115.679 Y100.364 E0.02828
G1 X115.162 Y100.364 E0.01322
G1 X115.162 Y101.494 E0.02885
G1 X114.644 Y101.517 E0.01323
G1 X114.644 Y100.364 E0.02943
G1 X114.126 Y100.364 E0.01322
G1 X114.126 Y101.539 E0.03000
G1 X113.608 Y101.562 E0.01323
G1 X113.608 Y100.364 E0.03058
G1 X113.090 Y100.364 E0.01322
G1 X113.090 Y101.584 E0.03115
G1 X112.573 Y101.607 E0.01323
G1 X112.573 Y100.364 E0.03173
G1 X112.055 Y100.364 E0.01322
G1 X112.055 Y101.629 E0.03230
G1 X111.537 Y101.652 E0.01323
G1 X111.537 Y100.364 E0.03287
G1 X111.019 Y100.364 E0.01322
G1 X111.019 Y101.674 E0.03345
G1 X110.501 Y101.697 E0.01323
G1 X110.501 Y100.364 E0.03402
G1 X109.984 Y100.364 E0.01322
G1 X109.984 Y101.719 E0.03460
G1 X109.466 Y101.742 E0.01323
G1 X109.466 Y100.364 E0.03517
G1 X108.948 Y100.364 E0.01322
G1 X108.948 Y101.764 E0.03574
G1 X108.430 Y101.787 E0.01323
G1 X108.430 Y100.364 E0.03632
G1 X107.912 Y100.364 E0.01322
G1 X107.912 Y101.809 E0.03689
G1 X107.394 Y101.832 E0.01323
G1 X107.394 Y100.364 E0.03747
G1 X106.877 Y100.364 E0.01322
G1 X106.877 Y101.854 E0.03804
G1 X106.359 Y101.877 E0.01323
G1 X106.359 Y100.364 E0.03861
G1 X105.841 Y100.364 E0.01322
G1 X105.841 Y101.899 E0.03919
G1 X105.323 Y101.922 E0.01323
G1 X105.323 Y100.364 E0.03976
G1 X104.805 Y100.364 E0.01322
G1 X104.805 Y101.981 E0.04127
G1 X104.525 Y102.286 E0.01059
G1 X104.545 Y102.746 E0.01175
G1 X104.578 Y102.745 E0.00084
G1 X104.547 Y102.779 E0.00119
G1 X104.564 Y103.179 E0.01021
G1 X104.520 Y103.227 E0.00167
G1 X104.597 Y105.000 E0.04532
G1 X104.288 Y105.000 E0.00790
G1 X104.288 Y100.221 E0.12202
;WIPE_START
G1 F8640.000
G1 X104.288 Y105.000 E-1.10341
G1 X104.597 Y105.000 E-0.07141
G1 X104.568 Y104.329 E-0.15518
;WIPE_END
G1 E-0.07000 F2100.000
G1 Z0.400 F10800.000
G1 X105.392 Y102.097
G1 Z0.200
G1 E1.40000 F2100.000
;TYPE:Support material
;WIDTH:0.42
G1 F1200.000
G1 X105.392 Y103.921 E0.05720
G1 X106.146 Y103.888 E0.02367
G1 X106.146 Y102.234 E0.05187
G1 X106.900 Y102.201 E0.02367
G1 X106.900 Y103.855 E0.05187
G1 X107.519 Y103.828 E0.01942
G1 X107.484 Y103.017 E0.02547
G1 X107.654 Y103.017 E0.00535
G1 X107.654 Y102.168 E0.02661
G1 X108.409 Y102.135 E0.02367
G1 X108.409 Y103.017 E0.02763
G1 X109.163 Y103.017 E0.02365
G1 X109.163 Y102.103 E0.02866
G1 X109.917 Y102.070 E0.02367
G1 X109.917 Y103.017 E0.02969
G1 X110.671 Y103.017 E0.02365
G1 X110.671 Y102.037 E0.03071
G1 X111.425 Y102.004 E0.02367
G1 X111.425 Y103.017 E0.03174
G1 X112.179 Y103.017 E0.02365
G1 X112.179 Y101.972 E0.03277
G1 X112.933 Y101.939 E0.02367
G1 X112.933 Y103.017 E0.03379
G1 X113.688 Y103.017 E0.02365
G1 X113.688 Y101.906 E0.03482
G1 X114.442 Y101.874 E0.02367
G1 X114.442 Y103.017 E0.03585
G1 X115.196 Y103.017 E0.02365
G1 X115.196 Y101.841 E0.03687
G1 X115.950 Y101.808 E0.02367
G1 X115.950 Y103.017 E0.03790
G1 X116.704 Y103.017 E0.02365
G1 X116.704 Y101.775 E0.03893
G1 X117.458 Y101.743 E0.02367
G1 X117.458 Y103.017 E0.03995
G1 X118.213 Y103.017 E0.02365
G1 X118.213 Y101.710 E0.04098
G1 X118.967 Y101.677 E0.02367
G1 X118.967 Y103.017 E0.04201
G1 X119.721 Y103.017 E0.02365
G1 X119.721 Y101.644 E0.04303
G1 X120.475 Y101.612 E0.02367
G1 X120.475 Y103.017 E0.04406
G1 X121.229 Y103.017 E0.02365
G1 X121.229 Y101.579 E0.04509
M73 Q1 S74
G1 X121.983 Y101.546 E0.02367
G1 X121.983 Y103.017 E0.04611
G1 X122.738 Y103.017 E0.02365
G1 X122.738 Y101.513 E0.04714
M73 P1 R74
G1 X123.492 Y101.481 E0.02367
G1 X123.492 Y103.017 E0.04817
G1 X124.246 Y103.017 E0.02365
G1 X124.246 Y101.448 E0.04919
G1 X125.000 Y101.415 E0.02367
G1 X125.000 Y103.017 E0.05022
G1 X125.754 Y103.017 E0.02365
G1 X125.754 Y101.382 E0.05125
G1 X126.508 Y101.350 E0.02367
G1 X126.508 Y103.004 E0.05187
G1 X127.262 Y102.971 E0.02367
G1 X127.262 Y101.317 E0.05187
G1 X128.017 Y101.284 E0.02367
G1 X128.017 Y102.938 E0.05187
G1 X128.771 Y102.906 E0.02367
G1 X128.771 Y101.251 E0.05187
G1 X129.525 Y101.219 E0.02367
G1 X129.525 Y102.873 E0.05187
G1 X130.279 Y102.840 E0.02367
G1 X130.279 Y101.186 E0.05187
G1 X131.033 Y101.153 E0.02367
G1 X131.033 Y102.807 E0.05187
G1 X131.787 Y102.775 E0.02367
G1 X131.787 Y101.120 E0.05187
G1 X132.542 Y101.088 E0.02367
G1 X132.542 Y102.742 E0.05187
G1 X133.296 Y102.709 E0.02367
G1 X133.296 Y101.055 E0.05187
G1 X134.050 Y101.022 E0.02367
G1 X134.050 Y102.676 E0.05187
G1 X134.804 Y102.644 E0.02367
G1 X134.804 Y100.989 E0.05187
G1 X135.558 Y100.957 E0.02367
G1 X135.558 Y102.611 E0.05187
G1 X136.312 Y102.578 E0.02367
G1 X136.312 Y100.924 E0.05187
G1 X137.067 Y100.891 E0.02367
G1 X137.067 Y102.546 E0.05187
G1 X137.821 Y102.513 E0.02367
G1 X137.821 Y100.858 E0.05187
G1 X138.575 Y100.826 E0.02367
G1 X138.575 Y102.650 E0.05720
;WIPE_START
G1 F8640.000
G1 X138.575 Y100.826 E-0.42121
G1 X137.821 Y100.858 E-0.17430
G1 X137.821 Y102.513 E-0.38199
G1 X137.067 Y102.546 E-0.17430
G1 X137.067 Y101.774 E-0.17819
;WIPE_END
G1 E-0.07000 F2100.000
G1 Z0.400 F10800.000
G1 X148.379 Y115.093
G1 Z0.200
G1 E1.40000 F2100.000
G1 F1200.000
G1 X148.379 Y92.758 E0.70030
G1 X147.625 Y92.758 E0.02365
G1 X147.625 Y114.924 E0.69498
G1 X146.871 Y114.924 E0.02365
G1 X146.871 Y92.758 E0.69498
G1 X146.116 Y92.758 E0.02365
G1 X146.116 Y114.924 E0.69498
G1 X145.362 Y114.924 E0.02365
G1 X145.362 Y109.983 E0.15491
G1 X144.608 Y109.983 E0.02365
G1 X144.608 Y114.924 E0.15491
G1 X143.854 Y114.924 E0.02365
G1 X143.854 Y109.983 E0.15491
G1 X143.100 Y109.983 E0.02365
G1 X143.100 Y114.924 E0.15491
G1 X142.346 Y114.924 E0.02365
G1 X142.346 Y109.983 E0.15491
G1 X141.591 Y109.983 E0.02365
G1 X141.591 Y114.924 E0.15491
G1 X140.837 Y114.924 E0.02365
G1 X140.837 Y109.983 E0.15491
G1 X140.083 Y109.983 E0.02365
G1 X140.083 Y114.924 E0.15491
G1 X139.329 Y114.924 E0.02365
G1 X139.329 Y109.983 E0.15491
G1 X138.575 Y109.983 E0.02365
G1 X138.575 Y114.924 E0.15491
G1 X137.821 Y114.924 E0.02365
G1 X137.821 Y109.983 E0.15491
G1 X137.067 Y109.983 E0.02365
G1 X137.067 Y114.924 E0.15491
G1 X136.312 Y114.924 E0.02365
